korla/apps/scalable/network-manager.svg

<!DOCTYPE svg  PUBLIC '-//W3C//DTD SVG 1.1//EN'  'http://www.w3.org/Graphics/SVG/1.1/DTD/svg11.dtd'>
<svg style="clip-rule:evenodd;fill-rule:evenodd;stroke-linejoin:round;stroke-miterlimit:1.41421" version="1.1" viewBox="0 0 48 48" xmlns="http://www.w3.org/2000/svg">
 <path d="m17.113 13.208c-0.121-4e-3 -0.267 2e-3 -0.457 2e-3h-12.647c-0.45 0-2.512 2.36-2.512 2.813v1.893c-1e-3 0.019-5e-3 0.037-5e-3 0.056v23.206c0 0.868 0.699 1.568 1.567 1.568h42.087c0.868 0 1.566-0.7 1.566-1.568v-21.56c0-0.868-2.318-3.214-3.186-3.214h-23.51c-0.015-0.02-0.025-0.031-0.041-0.052-0.58-0.781-1.456-1.79-2.027-2.552-0.343-0.5-0.471-0.583-0.834-0.592h-1e-3z" style="fill-opacity:.666667;fill-rule:nonzero"/>
 <path d="m13.127 5.748h-8.333c-1.613 0-3.297 0.809-3.297 2.74v2.938c-1e-3 0.019-6e-3 0.037-6e-3 0.056v28.668c0 0.868 0.7 1.568 1.568 1.568h42.087c0.868 0 1.566-0.7 1.566-1.568v-27.1c0-1.913-1.351-3.136-3.082-3.136-5.037 0-18.107-0.051-20.91-0.051-1.328 0-2.472-1.598-2.472-1.598-1.071-1.072-2.049-2.543-4.4-2.519-0.573 0-2.166 2e-3 -2.721 2e-3z" style="fill-rule:nonzero;fill:url(#_Linear1)"/>
 <g transform="matrix(.0359483 0 0 .0359483 40.4176 7.63319)">
  <path d="m-456.7 534.134c-49.553 0-96.331 21.852-128.335 59.948-9.93 11.811-8.402 29.434 3.428 39.363 5.234 4.396 11.605 6.557 17.958 6.557 7.973 0 15.891-3.39 21.405-9.966 21.368-25.429 52.552-40.016 85.544-40.016s64.177 14.587 85.544 40.016c5.533 6.595 13.45 9.966 21.405 9.966 6.353 0 12.724-2.142 17.958-6.557 11.83-9.93 13.357-27.553 3.428-39.363-32.005-38.096-78.783-59.948-128.335-59.948z" style="fill-opacity:.847059;fill-rule:nonzero;fill:white"/>
  <path d="m-456.71 411.206c-82.545 0-160.489 36.419-213.879 99.926-9.929 11.811-8.402 29.434 3.428 39.363 5.234 4.396 11.605 6.558 17.958 6.558 7.973 0 15.891-3.391 21.405-9.967 42.716-50.838 105.086-79.993 171.089-79.993s128.372 29.155 171.107 79.993c5.533 6.595 13.45 9.967 21.404 9.967 6.353 0 12.724-2.143 17.959-6.558 11.829-9.929 13.356-27.57 3.428-39.363-53.41-63.506-131.354-99.926-213.899-99.926z" style="fill-opacity:.847059;fill-rule:nonzero;fill:white"/>
  <path d="m-157.259 432.768c-74.739-88.935-183.887-139.923-299.442-139.923s-224.685 50.988-299.443 139.923c-9.93 11.811-8.402 29.434 3.428 39.363 5.234 4.396 11.587 6.558 17.939 6.558 7.973 0 15.891-3.391 21.423-9.967 64.084-76.248 157.639-119.989 256.652-119.989s192.568 43.741 256.651 119.971c5.533 6.576 13.45 9.967 21.424 9.967 6.353 0 12.724-2.143 17.958-6.558 11.811-9.912 13.34-27.553 3.41-39.345z" style="fill-opacity:.847059;fill-rule:nonzero;fill:white"/>
  <path d="m-502.725 682.975c0 25.406 20.619 46.025 46.024 46.025s46.025-20.619 46.025-46.025c-7.775-65.326-90.569-48.666-92.049 0z" style="fill-opacity:.847059;fill-rule:nonzero;fill:white"/>
 </g>
 <defs>
  <linearGradient id="_Linear1" x2="1" gradientTransform="matrix(2.07538e-15,-33.8935,33.8935,2.07538e-15,11.2267,38.4659)" gradientUnits="userSpaceOnUse">
   <stop style="stop-color:rgb(25,124,241)" offset="0"/>
   <stop style="stop-color:rgb(32,188,250)" offset="1"/>
  </linearGradient>
 </defs>
</svg>

<?xml version="1.0" encoding="UTF-8" standalone="no"?>
<!DOCTYPE svg PUBLIC "-//W3C//DTD SVG 1.1//EN" "http://www.w3.org/Graphics/SVG/1.1/DTD/svg11.dtd">
<svg width="100%" height="100%" viewBox="0 0 48 48" version="1.1" xmlns="http://www.w3.org/2000/svg" xmlns:xlink="http://www.w3.org/1999/xlink" xml:space="preserve" xmlns:serif="http://www.serif.com/" style="fill-rule:evenodd;clip-rule:evenodd;stroke-linejoin:round;stroke-miterlimit:1.41421;">
    <path id="path12" d="M17.113,13.208C16.992,13.204 16.846,13.21 16.656,13.21L4.009,13.21C3.559,13.21 1.497,15.57 1.497,16.023L1.497,17.916C1.496,17.935 1.492,17.953 1.492,17.972L1.492,41.178C1.492,42.046 2.191,42.746 3.059,42.746L45.146,42.746C46.014,42.746 46.712,42.046 46.712,41.178L46.712,19.618C46.712,18.75 44.394,16.404 43.526,16.404L20.016,16.404C20.001,16.384 19.991,16.373 19.975,16.352C19.395,15.571 18.519,14.562 17.948,13.8C17.605,13.3 17.477,13.217 17.114,13.208L17.113,13.208Z" style="fill-opacity:0.666667;fill-rule:nonzero;"/>
    <path id="path14" d="M13.127,5.748L4.794,5.748C3.181,5.748 1.497,6.557 1.497,8.488L1.497,11.426C1.496,11.445 1.491,11.463 1.491,11.482L1.491,40.15C1.491,41.018 2.191,41.718 3.059,41.718L45.146,41.718C46.014,41.718 46.712,41.018 46.712,40.15L46.712,13.05C46.712,11.137 45.361,9.914 43.63,9.914C38.593,9.914 25.523,9.863 22.72,9.863C21.392,9.863 20.248,8.265 20.248,8.265C19.177,7.193 18.199,5.722 15.848,5.746C15.275,5.746 13.682,5.748 13.127,5.748Z" style="fill:url(#_Linear1);fill-rule:nonzero;"/>
    <g id="g25" transform="matrix(0.0359483,0,0,0.0359483,40.4176,7.63319)">
        <path id="path17" d="M-456.7,534.134C-506.253,534.134 -553.031,555.986 -585.035,594.082C-594.965,605.893 -593.437,623.516 -581.607,633.445C-576.373,637.841 -570.002,640.002 -563.649,640.002C-555.676,640.002 -547.758,636.612 -542.244,630.036C-520.876,604.607 -489.692,590.02 -456.7,590.02C-423.708,590.02 -392.523,604.607 -371.156,630.036C-365.623,636.631 -357.706,640.002 -349.751,640.002C-343.398,640.002 -337.027,637.86 -331.793,633.445C-319.963,623.515 -318.436,605.892 -328.365,594.082C-360.37,555.986 -407.148,534.134 -456.7,534.134Z" style="fill:white;fill-opacity:0.847059;fill-rule:nonzero;"/>
        <path id="path19" d="M-456.71,411.206C-539.255,411.206 -617.199,447.625 -670.589,511.132C-680.518,522.943 -678.991,540.566 -667.161,550.495C-661.927,554.891 -655.556,557.053 -649.203,557.053C-641.23,557.053 -633.312,553.662 -627.798,547.086C-585.082,496.248 -522.712,467.093 -456.709,467.093C-390.706,467.093 -328.337,496.248 -285.602,547.086C-280.069,553.681 -272.152,557.053 -264.198,557.053C-257.845,557.053 -251.474,554.91 -246.239,550.495C-234.41,540.566 -232.883,522.925 -242.811,511.132C-296.221,447.626 -374.165,411.206 -456.71,411.206Z" style="fill:white;fill-opacity:0.847059;fill-rule:nonzero;"/>
        <path id="path21" d="M-157.259,432.768C-231.998,343.833 -341.146,292.845 -456.701,292.845C-572.256,292.845 -681.386,343.833 -756.144,432.768C-766.074,444.579 -764.546,462.202 -752.716,472.131C-747.482,476.527 -741.129,478.689 -734.777,478.689C-726.804,478.689 -718.886,475.298 -713.354,468.722C-649.27,392.474 -555.715,348.733 -456.702,348.733C-357.689,348.733 -264.134,392.474 -200.051,468.704C-194.518,475.28 -186.601,478.671 -178.627,478.671C-172.274,478.671 -165.903,476.528 -160.669,472.113C-148.858,462.201 -147.329,444.56 -157.259,432.768Z" style="fill:white;fill-opacity:0.847059;fill-rule:nonzero;"/>
        <path id="path23" d="M-502.725,682.975C-502.725,708.381 -482.106,729 -456.701,729C-431.296,729 -410.676,708.381 -410.676,682.975C-418.451,617.649 -501.245,634.309 -502.725,682.975Z" style="fill:white;fill-opacity:0.847059;fill-rule:nonzero;"/>
    </g>
    <defs>
        <linearGradient id="_Linear1" x1="0" y1="0" x2="1" y2="0" gradientUnits="userSpaceOnUse" gradientTransform="matrix(2.07538e-15,-33.8935,33.8935,2.07538e-15,11.2267,38.4659)"><stop offset="0" style="stop-color:rgb(25,124,241);stop-opacity:1"/><stop offset="1" style="stop-color:rgb(32,188,250);stop-opacity:1"/></linearGradient>
    </defs>
</svg>
